libs/icons/src/svg/one-off-session.svg

<svg width="16" height="16" viewBox="0 0 16 16" fill="none" xmlns="http://www.w3.org/2000/svg">
<path fill-rule="evenodd" clip-rule="evenodd" d="M0.666667 1.33331C0.298477 1.33331 0 1.63178 0 1.99997C0 2.36816 0.298477 2.66664 0.666667 2.66664H15.3333C15.7015 2.66664 16 2.36816 16 1.99997C16 1.63178 15.7015 1.33331 15.3333 1.33331H0.666667ZM0 4.66664C0 4.29845 0.298477 3.99997 0.666667 3.99997H15.3333C15.7015 3.99997 16 4.29845 16 4.66664V11.3333C16 11.7015 15.7015 12 15.3333 12H0.666667C0.298477 12 0 11.7015 0 11.3333V4.66664ZM1.33333 5.33331V10.6666H14.6667V5.33331H1.33333ZM0 14C0 13.6318 0.298477 13.3333 0.666667 13.3333H15.3333C15.7015 13.3333 16 13.6318 16 14C16 14.3682 15.7015 14.6666 15.3333 14.6666H0.666667C0.298477 14.6666 0 14.3682 0 14Z" fill="#202327"/>
</svg>

<svg xmlns="http://www.w3.org/2000/svg" viewBox="0 0 16 16" class="sageicon"><path fill-rule="evenodd" d="M.667 1.333a.667.667 0 1 0 0 1.334h14.666a.667.667 0 1 0 0-1.334H.667ZM0 4.667C0 4.298.298 4 .667 4h14.666c.368 0 .667.298.667.667v6.666a.667.667 0 0 1-.667.667H.667A.667.667 0 0 1 0 11.333V4.667Zm1.333.666v5.334h13.334V5.333H1.333ZM0 14c0-.368.298-.667.667-.667h14.666a.667.667 0 0 1 0 1.334H.667A.667.667 0 0 1 0 14Z"/></svg>
